X:03031
T: Saint Patrick's Day
R: jig
O: RSCDS 3-3
B: RSCDS 3-3
Z: 1997 by John Chambers <jc@trillian.mit.edu>
N: Old Irish Jig - Rutherford's Country Dances 1750 and earlier.  Here from Gow's Repository.
M: 6/8
L: 1/8
%--------------------
K: G
D \
|: "G"G>AG GBc | d>ed dBG | "D7"A>Bc "G"BGD |1 "C"E>FE "D7"E2D :|2 "C"E2"D7"F "G"G2 ||
d \
|: "G"def "Em"g2e | "D"f2d "Em"e2B | "G"def "Em"g2e | "D"f2d "Em"e2g \
| "G"G>AG GBc | d>ed dBG | "D7"A>Bc "G"BGD | "D7"E2F "G"G2 :|
